X:130
T:Collar Green
R:Reel
B:The Athole Collection
M:C|
L:1/8
K:G Minor
c|BG B/c/d B2 GB|=FcAc =fcfa|gd g/a/b g2 dc|Bdef gdgb:|
B/c/d Gd BdGd|A=FAc =fcfa|B/c/d Gd BdGd|Bdef gdgb|
B/c/d Gd BdGd|A=FAc =fcfa|ba/g/ ag/f/ ~g2 dc|Bdef gdgb||

